public/images/constellation-host-publish.svg

<svg fill="none" height="186" viewBox="0 0 180 186" width="180" xmlns="http://www.w3.org/2000/svg" xmlns:xlink="http://www.w3.org/1999/xlink"><clipPath id="a"><path d="m0 0h130.252v142.5h-130.252z" transform="matrix(.898513 -.438946 .437017 .899453 .691895 57.5798)"/></clipPath><g clip-path="url(#a)"><path d="m140.208 107.929c-1.04-.156-1.73-1.146-1.577-2.191.153-1.044 1.139-1.735 2.179-1.579 1.04.155 1.73 1.146 1.577 2.19-.216 1.023-1.181 1.756-2.179 1.58z" fill="#204e62"/><path d="m38.6968 82.6907c-1.6862-.2506-2.7967-1.8565-2.5501-3.5491.2467-1.6925 1.8443-2.8049 3.5304-2.5543 1.6861.2505 2.7967 1.8564 2.55 3.549-.3512 1.6563-1.9144 2.8392-3.5303 2.5544z" fill="#204e62"/><path d="m57.3594 54.2546c-1.6862-.2505-2.7967-1.8565-2.5501-3.549.2467-1.6926 1.8442-2.8049 3.5304-2.5544 1.6861.2505 2.7967 1.8565 2.55 3.5491-.3512 1.6562-1.9145 2.8392-3.5303 2.5543z" fill="#204e62"/><path d="m65.2222 106.571c1.1405-.557 1.6136-1.938 1.0568-3.084-.5569-1.146-1.9328-1.623-3.0733-1.066s-1.6137 1.938-1.0568 3.084c.5568 1.146 1.9328 1.623 3.0733 1.066z" fill="#204e62"/><path d="m97.4402 93.5129c-.2112 1.2647-1.3795 2.08-2.5982 1.933-1.2599-.2142-2.0739-1.3886-1.9296-2.612.2112-1.2647 1.3795-2.08 2.5982-1.933 1.2599.2142 2.1371 1.3577 1.9296 2.612z" fill="#0c8085"/><path d="m138.748 90.4511c.552 1.1364.074 2.5315-1.057 3.084-1.131.5524-2.521.0701-3.073-1.0663-.553-1.1364-.074-2.5316 1.056-3.084 1.131-.5525 2.522-.0701 3.074 1.0663z" fill="#204e62"/><path d="m121.177 101.602c.553 1.137.074 2.532-1.056 3.084-1.131.553-2.522.07-3.074-1.066s-.074-2.532 1.057-3.084c1.131-.5525 2.521-.07 3.073 1.066z" fill="#204e62"/><path d="m81.4082 45.5628 2.7358.5325.438-2.7118.9298 2.6113 2.5681-.9751-1.8094 2.0717 2.088 1.7573-2.6696-.5037-.4765 2.7219-.8843-2.6248-2.5715.968 1.8093-2.0717z" fill="#0c8085"/><path d="m83.1377 117.037 1.649 2.055 1.979-1.702-.9206 2.458 2.4667.879-2.6111.415.485 2.59-1.6517-2.061-2.0177 1.722.962-2.472-2.4694-.884 2.5779-.4z" fill="#0c8085"/><path d="m32.1299 63.2478 1.649 2.0556 1.979-1.7027-.9207 2.4581 2.4668.879-2.6111.4158.485 2.5899-1.6517-2.0612-2.0177 1.7217.962-2.4715-2.4694-.8845 2.5779-.3996z" fill="#0c8085"/><path d="m148.794 114.326 2.476-.891-.959-2.432 2.017 1.675 1.634-2.051-.461 2.611 2.6.386-2.483.892.964 2.475-2.015-1.719-1.64 2.051.465-2.573z" fill="#0c8085"/><path d="m19.1851 80.2225 19.8827-.5778 24.7791 24.0783 55.1921-1.478 24.87 34.855" stroke="#204e62" stroke-miterlimit="10"/><path d="m147.816 82.5885-11.604 9.154" stroke="#204e62" stroke-miterlimit="10"/><g fill="#0c8085"><path d="m46.9553 51.6602c-.1519.9039-.9859 1.4947-1.8729 1.3865-.9004-.154-1.4903-.9924-1.3841-1.8828.1063-.8903.9859-1.4947 1.8728-1.3865.9005.154 1.4904.9924 1.3842 1.8828z"/><path d="m38.9848 91.5885c-.1714 1.0368-1.1346 1.7012-2.1229 1.5863-1.0329-.1739-1.6962-1.1422-1.5835-2.1342.1128-.992 1.1347-1.7012 2.1229-1.5863 1.0329.1739 1.6963 1.1421 1.5835 2.1342z"/><path d="m129.459 126.159c-.093.561-.614.92-1.148.858-.558-.094-.917-.617-.856-1.154.061-.536.613-.92 1.148-.857.558.094.917.617.856 1.153z"/><path d="m125.924 84.253c-.093.5605-.614.9197-1.148.8576-.558-.094-.917-.6175-.856-1.1538.061-.5364.613-.9198 1.148-.8577.558.094.917.6175.856 1.1539z"/><path d="m43.9007 38.2354c-.0927.5606-.6134.9198-1.1477.8577-.5584-.094-.9171-.6175-.8561-1.1539.061-.5363.6134-.9197 1.1477-.8576.5585.094.9171.6175.8561 1.1538z"/></g><path d="m138.164 134.955 5.307.726.564-5.332 2.033 4.989 4.823-2.112-3.189 4.187 4.246 3.14-5.3-.73-.574 5.329-2.033-4.99-4.82 2.119 3.27-4.182z" fill="#ffa135"/><path d="m145.121 75.5209 3.988 3.3966 3.35-4.1604-.91 5.2828 5.237.7606-4.943 1.8296 1.929 4.9706-4.09-3.4083-3.238 4.1757.843-5.2415-5.278-.8102 4.999-1.8745z" fill="#ffa135"/><path d="m13.8211 74.4411 4.7598 2.3909 2.2682-4.7587.3072 5.2473 5.3175-.4143-4.4397 2.9724 3.0565 4.3409-4.7564-2.3838-2.3106 4.8144-.3132-5.3492-5.2691.4605 4.3902-2.9133z" fill="#ffa135"/><path d="m149.917 96.7326c-.092.5606-.613.9198-1.147.8577-.559-.094-.917-.6175-.857-1.1539.061-.5363.614-.9197 1.148-.8576.559.094.917.6175.856 1.1538z" fill="#0c8085"/><path d="m65.2817 94.8279c-.1458.866-.9391 1.4196-1.769 1.315-.8627-.1479-1.4155-.9454-1.3127-1.7785s.9392-1.4196 1.7691-1.315c.8627.1479 1.4154.9454 1.3126 1.7785z" fill="#0c8085"/><path d="m39.0677 79.6447 18.837-28.399 61.1343 50.9993 18.052-11.0718 3.269 15.1718" stroke="#204e62" stroke-miterlimit="10"/><path d="m62.8053 88.8432c-.0666.3818-.422.6341-.7921.5878-.3805-.0674-.6323-.4247-.5868-.7963.0454-.3715.4219-.6341.7921-.5878.3804.0674.6322.4247.5868.7963z" fill="#0c8085"/><path d="m137.206 83.7895c-.096.5711-.621.9408-1.176.8714-.569-.0977-.938-.6248-.87-1.1821s.621-.9408 1.176-.8714c.569.0977.938.6248.87 1.1821z" fill="#0c8085"/></g></svg>

<svg width="180" height="186" viewBox="0 0 180 186" fill="none" xmlns="http://www.w3.org/2000/svg">
<g clip-path="url(#clip0_147_2531)">
<path d="M140.208 107.929C139.168 107.773 138.478 106.783 138.631 105.738C138.784 104.694 139.77 104.003 140.81 104.159C141.85 104.314 142.54 105.305 142.387 106.349C142.171 107.372 141.206 108.105 140.208 107.929Z" fill="#204E62"/>
<path d="M38.6968 82.6907C37.0106 82.4401 35.9001 80.8342 36.1467 79.1416C36.3934 77.4491 37.991 76.3367 39.6771 76.5873C41.3632 76.8378 42.4738 78.4437 42.2271 80.1363C41.8759 81.7926 40.3127 82.9755 38.6968 82.6907Z" fill="#204E62"/>
<path d="M57.3594 54.2546C55.6732 54.0041 54.5627 52.3981 54.8093 50.7056C55.056 49.013 56.6535 47.9007 58.3397 48.1512C60.0258 48.4017 61.1364 50.0077 60.8897 51.7003C60.5385 53.3565 58.9752 54.5395 57.3594 54.2546Z" fill="#204E62"/>
<path d="M65.2222 106.571C66.3627 106.014 66.8358 104.633 66.279 103.487C65.7221 102.341 64.3462 101.864 63.2057 102.421C62.0652 102.978 61.592 104.359 62.1489 105.505C62.7057 106.651 64.0817 107.128 65.2222 106.571Z" fill="#204E62"/>
<path d="M97.4402 93.5129C97.229 94.7776 96.0607 95.5929 94.842 95.4459C93.5821 95.2317 92.7681 94.0573 92.9124 92.8339C93.1236 91.5692 94.2919 90.7539 95.5106 90.9009C96.7705 91.1151 97.6477 92.2586 97.4402 93.5129Z" fill="#0C8085"/>
<path d="M138.748 90.4511C139.3 91.5875 138.822 92.9826 137.691 93.5351C136.56 94.0875 135.17 93.6052 134.618 92.4688C134.065 91.3324 134.544 89.9372 135.674 89.3848C136.805 88.8323 138.196 89.3147 138.748 90.4511Z" fill="#204E62"/>
<path d="M121.177 101.602C121.73 102.739 121.251 104.134 120.121 104.686C118.99 105.239 117.599 104.756 117.047 103.62C116.495 102.484 116.973 101.088 118.104 100.536C119.235 99.9835 120.625 100.466 121.177 101.602Z" fill="#204E62"/>
<path d="M81.4082 45.5628L84.144 46.0953L84.582 43.3835L85.5118 45.9948L88.0799 45.0197L86.2705 47.0914L88.3585 48.8487L85.6889 48.345L85.2124 51.0669L84.3281 48.4421L81.7566 49.4101L83.5659 47.3384L81.4082 45.5628Z" fill="#0C8085"/>
<path d="M83.1377 117.037L84.7867 119.092L86.7657 117.39L85.8451 119.848L88.3118 120.727L85.7007 121.142L86.1857 123.732L84.534 121.671L82.5163 123.393L83.4783 120.921L81.0089 120.037L83.5868 119.637L83.1377 117.037Z" fill="#0C8085"/>
<path d="M32.1299 63.2478L33.7789 65.3034L35.7579 63.6007L34.8372 66.0588L37.304 66.9378L34.6929 67.3536L35.1779 69.9435L33.5262 67.8823L31.5085 69.604L32.4705 67.1325L30.0011 66.248L32.579 65.8484L32.1299 63.2478Z" fill="#0C8085"/>
<path d="M148.794 114.326L151.27 113.435L150.311 111.003L152.328 112.678L153.962 110.627L153.501 113.238L156.101 113.624L153.618 114.516L154.582 116.991L152.567 115.272L150.927 117.323L151.392 114.75L148.794 114.326Z" fill="#0C8085"/>
<path d="M19.1851 80.2225L39.0678 79.6447L63.8469 103.723L119.039 102.245L143.909 137.1" stroke="#204E62" stroke-miterlimit="10"/>
<path d="M147.816 82.5885L136.212 91.7425" stroke="#204E62" stroke-miterlimit="10"/>
<path d="M46.9553 51.6602C46.8034 52.5641 45.9694 53.1549 45.0824 53.0467C44.182 52.8927 43.5921 52.0543 43.6983 51.1639C43.8046 50.2736 44.6842 49.6692 45.5711 49.7774C46.4716 49.9314 47.0615 50.7698 46.9553 51.6602Z" fill="#0C8085"/>
<path d="M38.9848 91.5885C38.8134 92.6253 37.8502 93.2897 36.8619 93.1748C35.829 93.0009 35.1657 92.0326 35.2784 91.0406C35.3912 90.0486 36.4131 89.3394 37.4013 89.4543C38.4342 89.6282 39.0976 90.5964 38.9848 91.5885Z" fill="#0C8085"/>
<path d="M129.459 126.159C129.366 126.72 128.845 127.079 128.311 127.017C127.753 126.923 127.394 126.4 127.455 125.863C127.516 125.327 128.068 124.943 128.603 125.006C129.161 125.1 129.52 125.623 129.459 126.159Z" fill="#0C8085"/>
<path d="M125.924 84.253C125.831 84.8135 125.31 85.1727 124.776 85.1106C124.218 85.0166 123.859 84.4931 123.92 83.9568C123.981 83.4204 124.533 83.037 125.068 83.0991C125.626 83.1931 125.985 83.7166 125.924 84.253Z" fill="#0C8085"/>
<path d="M43.9007 38.2354C43.808 38.796 43.2873 39.1552 42.753 39.0931C42.1946 38.9991 41.8359 38.4756 41.8969 37.9392C41.9579 37.4029 42.5103 37.0195 43.0446 37.0816C43.6031 37.1756 43.9617 37.6991 43.9007 38.2354Z" fill="#0C8085"/>
<path d="M138.164 134.955L143.471 135.681L144.035 130.349L146.068 135.338L150.891 133.226L147.702 137.413L151.948 140.553L146.648 139.823L146.074 145.152L144.041 140.162L139.221 142.281L142.491 138.099L138.164 134.955Z" fill="#FFA135"/>
<path d="M145.121 75.5209L149.109 78.9175L152.459 74.7571L151.549 80.0399L156.786 80.8005L151.843 82.6301L153.772 87.6007L149.682 84.1924L146.444 88.3681L147.287 83.1266L142.009 82.3164L147.008 80.4419L145.121 75.5209Z" fill="#FFA135"/>
<path d="M13.8211 74.4411L18.5809 76.832L20.8491 72.0733L21.1563 77.3206L26.4738 76.9063L22.0341 79.8787L25.0906 84.2196L20.3342 81.8358L18.0236 86.6502L17.7104 81.301L12.4413 81.7615L16.8315 78.8482L13.8211 74.4411Z" fill="#FFA135"/>
<path d="M149.917 96.7326C149.825 97.2932 149.304 97.6524 148.77 97.5903C148.211 97.4963 147.853 96.9728 147.913 96.4364C147.974 95.9001 148.527 95.5167 149.061 95.5788C149.62 95.6728 149.978 96.1963 149.917 96.7326Z" fill="#0C8085"/>
<path d="M65.2817 94.8279C65.1359 95.6939 64.3426 96.2475 63.5127 96.1429C62.65 95.995 62.0972 95.1975 62.2 94.3644C62.3028 93.5313 63.1392 92.9448 63.9691 93.0494C64.8318 93.1973 65.3845 93.9948 65.2817 94.8279Z" fill="#0C8085"/>
<path d="M39.0677 79.6447L57.9047 51.2457L119.039 102.245L137.091 91.1732L140.36 106.345" stroke="#204E62" stroke-miterlimit="10"/>
<path d="M62.8053 88.8432C62.7387 89.225 62.3833 89.4773 62.0132 89.431C61.6327 89.3636 61.3809 89.0063 61.4264 88.6347C61.4718 88.2632 61.8483 88.0006 62.2185 88.0469C62.5989 88.1143 62.8507 88.4716 62.8053 88.8432Z" fill="#0C8085"/>
<path d="M137.206 83.7895C137.11 84.3606 136.585 84.7303 136.03 84.6609C135.461 84.5632 135.092 84.0361 135.16 83.4788C135.228 82.9215 135.781 82.538 136.336 82.6074C136.905 82.7051 137.274 83.2322 137.206 83.7895Z" fill="#0C8085"/>
</g>
<defs>
<clipPath id="clip0_147_2531">
<rect width="130.252" height="142.5" fill="white" transform="matrix(0.898513 -0.438946 0.437017 0.899453 0.691895 57.5798)"/>
</clipPath>
</defs>
</svg>
